launcher/android/assets/skins/day/svg/mapEarth0.svg

<svg enable-background="new 0 0 54.94 55.13" height="55.1286" viewBox="0 0 54.94 55.13" width="54.9407" xmlns="http://www.w3.org/2000/svg" xmlns:xlink="http://www.w3.org/1999/xlink"><radialGradient id="a" cx="35.2098" cy="21.4945" gradientTransform="matrix(0 -1 1 0 13.715332 56.704346)" gradientUnits="userSpaceOnUse" r="29.3837"><stop offset="0" stop-color="#fffdfd"/><stop offset=".731481" stop-color="#fff"/><stop offset=".805556" stop-color="#ffb600"/><stop offset=".925926" stop-color="#ffb600"/><stop offset="1" stop-color="#ffe45c"/></radialGradient><linearGradient id="b"><stop offset="0" stop-color="#fffdfd"/><stop offset=".606481" stop-color="#fff"/><stop offset=".699074" stop-color="#ffb600"/><stop offset=".925926" stop-color="#ffb600"/><stop offset="1" stop-color="#ffe45c"/></linearGradient><radialGradient id="c" cx="28.7007" cy="26.7622" gradientUnits="userSpaceOnUse" r="19.8281" xlink:href="#b"/><radialGradient id="d" cx="33.0852" cy="21.9775" gradientUnits="userSpaceOnUse" r="16.88" xlink:href="#b"/><g stroke-linejoin="bevel"><path d="m27.4703.5c14.8954 0 26.9704 12.1169 26.9704 27.0642s-12.0751 27.0645-26.9704 27.0645c-14.8952 0-26.9703-12.1172-26.9703-27.0645s12.075-27.0642 26.9703-27.0642z" fill="#a0d4e0" stroke="#000"/><path d="m51.8682 28.915-1.4801.8459-.7048.6344-.2115 2.5373.4934 1.9734-.3524 1.1981-.8458.9163-.5638 1.3391-.9162.8458-.7754.4933-2.0439.141-.7752-.8457-1.762-.7754-2.4668-.2114-1.4097-.7049-1.762-.0704-1.9029.7753-1.1277.7754-.5639 1.6914.282 1.4802.5638 1.0571-.4229 1.0572-.9163.5639-.4933 1.3391.3524 2.3258.6343.9867-.4934 1.0572-.7047.9162-.7753 1.2688.2114 1.2686.0589.2431c12.5511-1.9151 22.2598-12.5112 22.8535-25.4936l-.4292.0185z" fill="#205910" stroke-width=".2"/><path d="m17.3329 6.43213.141-2.25537-.7186-1.20386c-9.01516 4.17065-15.34609 13.1864-15.67782 23.7208l1.31366.1776 1.55054-.2114 1.19818-.9868.63431-.9867.56384-1.3392.8458-.6343.21142-1.8325.56385-1.6914 1.05719-.9869.98673-.2114.9162.4229.9163.7754 1.621.1408 1.762-.1408.6343-1.2687 1.4097-1.0573.9866-1.4799.7048-1.8326-.1409-2.2553-.4229-1.33915-1.0572-1.26855z" fill="#205910" stroke-width=".2"/><g stroke="#000"><path d="m33.6035 26.1663-.1879.1337-1.5304.5059-10.6282 6.937-.9212-4.709-.5244-6.0581.3402-4.5525.9352-5.4196 1.9556-4.26347 2.3808-4.55249 2.7208-3.613277.7131.659917 3.9422 24.94202z" fill="url(#a)"/><path d="m28.5746 23.8523 25.6251 3.4423c-.2933-14.1183-11.3598-25.57854-25.2837-26.437666z" fill="url(#c)"/><path d="m28.5287 23.3091-.1304.1556-.4934 1.2687-6.766 8.8098 4.5929.7637 5.9086.4346 4.4402-.2819 5.286-.7753 4.1583-1.6211 4.4403-1.9734 3.524-2.2553-.6436-.5911-24.3268-3.2678z" fill="url(#d)"/></g></g></svg>

﻿<?xml version="1.0" encoding="utf-8"?>
<!DOCTYPE svg PUBLIC "-//W3C//DTD SVG 1.1//EN" "http://www.w3.org/Graphics/SVG/1.1/DTD/svg11.dtd">
<svg xmlns="http://www.w3.org/2000/svg" xmlns:xlink="http://www.w3.org/1999/xlink" version="1.1" baseProfile="full" width="54.9407" height="55.1286" viewBox="0 0 54.94 55.13" enable-background="new 0 0 54.94 55.13" xml:space="preserve">
	<g>
		<path fill="#A0D4E0" fill-opacity="1" stroke-linejoin="bevel" stroke="#000000" stroke-opacity="1" d="M 27.4703,0.5C 42.3657,0.5 54.4407,12.6169 54.4407,27.5642C 54.4407,42.5115 42.3656,54.6287 27.4703,54.6287C 12.5751,54.6287 0.5,42.5115 0.5,27.5642C 0.5,12.6169 12.575,0.5 27.4703,0.5 Z "/>
		<path fill="#205910" fill-opacity="1" stroke-width="0.2" stroke-linejoin="bevel" d="M 51.8682,28.915L 50.3881,29.7609L 49.6833,30.3953L 49.4718,32.9326L 49.9652,34.906L 49.6128,36.1041L 48.767,37.0204L 48.2032,38.3595L 47.287,39.2053L 46.5116,39.6986L 44.4677,39.8396L 43.6925,38.9939L 41.9305,38.2185L 39.4637,38.0071L 38.054,37.3022L 36.292,37.2318L 34.3891,38.0071L 33.2614,38.7825L 32.6975,40.4739L 32.9795,41.9541L 33.5433,43.0112L 33.1204,44.0684L 32.2041,44.6323L 31.7108,45.9714L 32.0632,48.2972L 32.6975,49.2839L 32.2041,50.3411L 31.4994,51.2573L 30.7241,52.5261L 30.9355,53.7947L 30.9944,54.0378C 43.5455,52.1227 53.2542,41.5266 53.8479,28.5442L 53.4187,28.5627L 51.8682,28.915 Z "/>
		<path fill="#205910" fill-opacity="1" stroke-width="0.2" stroke-linejoin="bevel" d="M 17.3329,6.43213L 17.4739,4.17676L 16.7553,2.9729C 7.74014,7.14355 1.40921,16.1593 1.07748,26.6937L 2.39114,26.8713L 3.94168,26.6599L 5.13986,25.6731L 5.77417,24.6864L 6.33801,23.3472L 7.18381,22.7129L 7.39523,20.8804L 7.95908,19.189L 9.01627,18.2021L 10.003,17.9907L 10.9192,18.4136L 11.8355,19.189L 13.4565,19.3298L 15.2185,19.189L 15.8528,17.9203L 17.2625,16.863L 18.2491,15.3831L 18.9539,13.5505L 18.813,11.2952L 18.3901,9.95605L 17.3329,8.6875L 17.3329,6.43213 Z "/>
		<radialGradient id="SVGID_Fill1_" cx="35.2098" cy="21.4945" r="29.3837" gradientUnits="userSpaceOnUse" gradientTransform="rotate(-90.000000 35.209839 21.494507)">
			<stop offset="0" stop-color="#FFFDFD" stop-opacity="1"/>
			<stop offset="0.731481" stop-color="#FFFFFF" stop-opacity="1"/>
			<stop offset="0.805556" stop-color="#FFB600" stop-opacity="1"/>
			<stop offset="0.925926" stop-color="#FFB600" stop-opacity="1"/>
			<stop offset="1" stop-color="#FFE45C" stop-opacity="1"/>
		</radialGradient>
		<path fill="url(#SVGID_Fill1_)" stroke-linejoin="bevel" stroke="#000000" stroke-opacity="1" d="M 33.6035,26.1663L 33.4156,26.3L 31.8852,26.8059L 21.257,33.7429L 20.3358,29.0339L 19.8114,22.9758L 20.1516,18.4233L 21.0868,13.0037L 23.0424,8.74023L 25.4232,4.18774L 28.144,0.574463L 28.8571,1.23438L 32.7993,26.1764L 33.6035,26.1663 Z "/>
		<radialGradient id="SVGID_Fill2_" cx="28.7007" cy="26.7622" r="19.8281" gradientUnits="userSpaceOnUse">
			<stop offset="0" stop-color="#FFFDFD" stop-opacity="1"/>
			<stop offset="0.606481" stop-color="#FFFFFF" stop-opacity="1"/>
			<stop offset="0.699074" stop-color="#FFB600" stop-opacity="1"/>
			<stop offset="0.925926" stop-color="#FFB600" stop-opacity="1"/>
			<stop offset="1" stop-color="#FFE45C" stop-opacity="1"/>
		</radialGradient>
		<path fill="url(#SVGID_Fill2_)" stroke-linejoin="bevel" stroke="#000000" stroke-opacity="1" d="M 28.5746,23.8523L 54.1997,27.2946C 53.9064,13.1763 42.8399,1.71606 28.916,0.856934L 28.5746,23.8523 Z "/>
		<radialGradient id="SVGID_Fill3_" cx="33.0852" cy="21.9775" r="16.88" gradientUnits="userSpaceOnUse">
			<stop offset="0" stop-color="#FFFDFD" stop-opacity="1"/>
			<stop offset="0.606481" stop-color="#FFFFFF" stop-opacity="1"/>
			<stop offset="0.699074" stop-color="#FFB600" stop-opacity="1"/>
			<stop offset="0.925926" stop-color="#FFB600" stop-opacity="1"/>
			<stop offset="1" stop-color="#FFE45C" stop-opacity="1"/>
		</radialGradient>
		<path fill="url(#SVGID_Fill3_)" stroke-linejoin="bevel" stroke="#000000" stroke-opacity="1" d="M 28.5287,23.3091L 28.3983,23.4647L 27.9049,24.7334L 21.1389,33.5432L 25.7318,34.3069L 31.6404,34.7415L 36.0806,34.4596L 41.3666,33.6843L 45.5249,32.0632L 49.9652,30.0898L 53.4892,27.8345L 52.8456,27.2434L 28.5188,23.9756L 28.5287,23.3091 Z "/>
	</g>
</svg>
